X:1
T:Title
%%score { ( 1 4 ) | ( 2 3 ) }
L:1/8
M:6/8
K:Bb
V:1 treble nm="Grand Piano"
V:4 treble 
V:2 bass 
V:3 bass 
V:1
 z3 z2[Q:1/4=90] [DF] | [DF][DF][DF] [B,D][CE][DF] | [_DG]3 [F,=DF]2 [DF] | ABc A2 G | %4
[M:5/8] [_DG]3 [=DF]2 |[M:1/8] [DF] |[M:3/4] [DF][DF] [DF][B,D] [CE][DF] | [_DG]3 [=DF]2 [DG] | %8
 [=EA][EG] [EA] [EB]2 [EG] |[M:5/8] [Ec]-[Ec]- [Ec]3 |[M:1/8] [EF] | %11
[M:3/4] [Fd][=E_d] [F=d][Ge] [Fd][E_d] | [Fd]3 [DB] [_AB][AB] | [GB]2 [GB] [FA]2 [EG] | %14
[M:5/8] [DF]-[DF]- [DF]3 |[M:1/8] [DF] |[M:3/4] [DF][DB] [DB][DB] [EA][FB] | c3 G2 G | F2 FF GA | %19
 [DB]6 | B4 z2 | [DF]2 [_DG] [=DF]3 | c4 z2 | F2 G F3 | d4 z2 | c2 B A2 G | FF- F/F/ G2 F | %27
[M:5/8] [DB-]2 B3 |] %28
V:2
 z3 z2 [B,,B,] | [B,,B,][B,,B,][B,,B,] [B,,F,]2 [B,,F,] | =E,3 z2 [B,,B,] | %3
 [F,CE][F,B,E][F,A,E] [F,CE]2 [F,A,E] |[M:5/8] [B,,B,]-[B,,B,]- [B,,B,]3 |[M:1/8] [B,,B,] | %6
[M:3/4] [B,,B,][B,,B,] [B,,B,] [B,,F,]2 [B,,F,] | [B,,=E,]3 [B,,F,]2 [B,,F,] | %8
 [C,B,][C,B,] [C,B,] [C,G,]2 [C,B,] |[M:5/8] [F,A,]-[F,A,]- [F,A,]3 |[M:1/8] [F,A,] | %11
[M:3/4] [B,,B,][B,,B,] [B,,B,][B,,B,] [B,,B,][B,,B,] | [B,,B,]3 [B,,B,] [B,,B,][D,B,] | %13
 [E,B,]2 [E,B,] [E,B,]2 [E,B,] |[M:5/8] [B,,B,]-[B,,B,]- [B,,B,]3 |[M:1/8] [B,,B,] | %16
[M:3/4] [B,,B,][B,,F,] [B,,F,][B,,F,] [C,F,][D,B,] | [E,G,E]3 [=E,B,_D]2 [E,B,D] | %18
 [F,B,D]2 [F,B,D][F,A,E] [F,B,E][F,CE] | [B,,B,]6 | [B,,F,][B,,F,] [B,,F,] [B,,=E,]2 [B,,E,] | %21
 [B,,F,]2 [B,,=E,] [B,,F,]3 | [F,A,E][F,A,] [F,A,] [F,CE]2 [F,B,E] | [F,A,E]2 [F,B,E] [F,A,E]3 | %24
 [B,,B,][B,,B,] [B,,B,] [D,A,]2 [D,A,] | [E,G,E]2 [E,G,E] [=E,B,_D]2 [E,B,D] | %26
 [F,B,D][F,B,D]- [F,B,D]/[F,B,D]/ [F,A,E]2 [F,CE] |[M:5/8] z F,G, F,2 |] %28
V:3
 x6 | x6 | B,,6 | x6 |[M:5/8] x5 |[M:1/8] x |[M:3/4] x6 | x6 | x6 |[M:5/8] x5 |[M:1/8] x | %11
[M:3/4] x6 | x6 | x6 |[M:5/8] x5 |[M:1/8] x |[M:3/4] x6 | x6 | x6 | x6 | x6 | x6 | x6 | x6 | x6 | %25
 x6 | x6 |[M:5/8] B,,-B,,- B,,3 |] %28
V:4
 x6 | x6 | x6 | x6 |[M:5/8] x5 |[M:1/8] x |[M:3/4] x6 | x6 | x6 |[M:5/8] x5 |[M:1/8] x | %11
[M:3/4] x6 | x6 | x6 |[M:5/8] x5 |[M:1/8] x |[M:3/4] x6 | x6 | x6 | x6 | DD D [_DA]2 [DG] | x6 | %22
 z E E A2 G | x6 | FF F [^Fd]2 [Fc] | x6 | x6 |[M:5/8] B, z E D2 |] %28

